X: 14867
T: Garrison Road
R: reel
M: 4/4
K: Amajor
E3F ABcf|e/e/e cA FdAF|E3F ABca|gaec dcAF|
E3F ABcf|e/e/e cA FdAF|E3F ABca|gaec A3z||
a2 ge fece|f~a3 gbeg|a2 ge fecA|dBed cAAg|
a2 ge fece|f~a3 gbeg|a2 ge fecA|dBed cAAa||
fc c/c/c fgaf|gfec Bceg|fc c/c/c fgaf|gfeb affg|
fc c/c/c fgaf|gfec Bceg|a2 ge f2 ec|dBed cAAF||

